**kern	**kern	**dynam
*part1	*part1	*part1
*staff2	*staff1	*
*I"Piano	*	*
*clefF4	*clefG2	*
*k[f#]	*k[f#]	*
*M3/4	*M3/4	*
=1	=1	=1
!	!	!LO:DY:a
2.r	[2.e [2.g [2.b	p
=	=	=
2.r	2.e] 2.g] 2.b]	.
=	=	=
*	*^	*
(2E	(4b	4e 4g	.
.	4ee	4g 4b	.
4F#	4dd	4d 4a	.
=	=	=	=
2.G)	2b)	2d 2g	.
.	([4g	4B	.
=	=	=	=
(4GG	4b	4d 4g]	.
4FF#	4a	4d	.
4DD	4f#	4A 4d	.
*	*v	*v	*
=	=	=
2AA)	2A) 2c#X 2e	.
*	*^	*
4EE	8eL 8g	4B	.
.	8f#J 8a	.	.
=	=	=	=
(2E	(4b	4e 4g	.
.	4ee	4g 4b	.
4F#	4dd	4d 4a	.
*	*v	*v	*
=	=	=
*-	*-	*-
!!!system-decoration: {(s1,s2)}
